; generated by PrusaSlicer 2.6.1 on 2023-09-30 at 14:49:50 UTC

; 

; external perimeters extrusion width = 0.45mm
; perimeters extrusion width = 0.45mm
; infill extrusion width = 0.45mm
; solid infill extrusion width = 0.45mm
; top infill extrusion width = 0.42mm
; first layer extrusion width = 0.50mm

M73 P0 R80
M201 X4000 Y4000 Z200 E2500 ; sets maximum accelerations, mm/sec^2
M203 X300 Y300 Z40 E100 ; sets maximum feedrates, mm / sec
M204 P4000 R1200 T4000 ; sets acceleration (P, T) and retract acceleration (R), mm/sec^2
M205 X8.00 Y8.00 Z2.00 E10.00 ; sets the jerk limits, mm/sec
M205 S0 T0 ; sets the minimum extruding and travel feed rate, mm/sec
;TYPE:Custom
M17 ; enable steppers
M862.1 P0.4 ; nozzle diameter check
M862.3 P "MK4" ; printer model check
M862.5 P2 ; g-code level check
M862.6 P"Input shaper" ; FW feature check
M115 U5.0.0+12061

M555 X50 Y76 W150 H54

G90 ; use absolute coordinates
M83 ; extruder relative mode

M140 S85 ; set bed temp

M104 S170 ; set extruder temp for bed leveling
M109 R170 ; wait for temp


M84 E ; turn off E motor

G28 ; home all without mesh bed level

G1 X42 Y-4 Z5 F4800

M302 S160 ; lower cold extrusion limit to 160C


G1 E-2 F2400 ; retraction


M84 E ; turn off E motor

G29 P9 X10 Y-4 W32 H4



G0 Z40 F10000

M190 S85 ; wait for bed temp

M107

;
; MBL
;
M84 E ; turn off E motor
G29 P1 ; invalidate mbl & probe print area
G29 P1 X0 Y0 W50 H20 C ; probe near purge place
G29 P3.2 ; interpolate mbl probes
G29 P3.13 ; extrapolate mbl outside probe area
G29 A ; activate mbl

; prepare for purge
M104 S240
G0 X0 Y-4 Z15 F4800 ; move away and ready for the purge
M109 S240

G92 E0
M569 S0 E ; set spreadcycle mode for extruder

;
; Extrude purge line
;
G92 E0 ; reset extruder position
G1 E2 F2400 ; deretraction after the initial one before nozzle cleaning
G0 E7 X15 Z0.2 F500 ; purge
G0 X25 E4 F500 ; purge
G0 X35 E4 F650 ; purge
G0 X45 E4 F800 ; purge
G0 X48 Z0.05 F8000 ; wipe, move close to the bed
G0 X51 Z0.2 F8000 ; wipe, move quickly away from the bed

G92 E0
M221 S100 ; set flow to 100%
G21 ; set units to millimeters
G90 ; use absolute coordinates
M83 ; use relative distances for extrusion
M900 K0.07 ; Filament gcode


M572 S0.055 ; Filament gcode


M142 S36 ; set heatbreak target temp
M107
;LAYER_CHANGE
;Z:0.2
;HEIGHT:0.2
;BEFORE_LAYER_CHANGE
G92 E0.0
;0.2
M201 X4000 Y4000
M74 W0

G1 E-.8 F2100
G1 Z.2 F720
;AFTER_LAYER_CHANGE
;0.2
; printing object Alohomora_Schluesselbrett_v1.stl id:0 copy 0
G1 Z.4
M204 T4000
G1 X104.345 Y114.152 F18000
G1 Z.2 F720
G1 E.8 F2100
M204 P500
;TYPE:Perimeter
;WIDTH:0.499999
G1 F2400
G1 X104.187 Y114.227 E.00665
G1 X103.919 Y114.195 E.01026
G1 X103.376 Y114.016 E.02173
G1 X102.582 Y113.689 E.03264
G1 X101.6 Y113.159 E.04241
G1 X99.591 Y111.86 E.09093
G1 X99.306 Y111.405 E.02041
;WIDTH:0.466205
G1 X99.299 Y111.321 E.00297
;WIDTH:0.460083
G1 X99.237 Y109.875 E.0502
;WIDTH:0.425431
G1 X99.174 Y108.428 E.04607
;WIDTH:0.390779
G1 X99.112 Y106.981 E.04189
;WIDTH:0.399417
G1 X99.088 Y106.925 E.00181
;WIDTH:0.442707
G1 X99.065 Y106.87 E.00198
;WIDTH:0.485997
G1 X99.041 Y106.814 E.00224
;WIDTH:0.529287
G1 X99.018 Y106.758 E.00245
;WIDTH:0.572577
G1 X98.994 Y106.702 E.00268
;WIDTH:0.615866
G1 X98.971 Y106.646 E.00288
;WIDTH:0.659156
G1 X98.947 Y106.59 E.00312
G1 X98.926 Y106.647 E.00311
;WIDTH:0.615866
G1 X98.905 Y106.705 E.00294
;WIDTH:0.572577
G1 X98.884 Y106.762 E.00268
;WIDTH:0.529287
G1 X98.862 Y106.819 E.00247
;WIDTH:0.485997
G1 X98.841 Y106.877 E.00227
;WIDTH:0.442707
G1 X98.82 Y106.934 E.00202
;WIDTH:0.399417
G1 X98.799 Y106.991 E.0018
;WIDTH:0.390779
G1 X98.827 Y108.439 E.04189
;WIDTH:0.425431
G1 X98.855 Y109.886 E.04603
;WIDTH:0.460083
G1 X98.883 Y111.334 E.05024
;WIDTH:0.499999
G1 X98.909 Y112.234 E.03422
G1 X98.948 Y117.528 E.20121
G1 X98.946 Y122.019 E.17069
G1 X98.883 Y122.305 E.01113
G1 X98.689 Y122.554 E.012
G1 X98.471 Y122.671 E.0094
G1 X97.949 Y122.822 E.02065
G1 X97.651 Y122.784 E.01142
G1 X97.413 Y122.636 E.01065
G1 X97.33 Y122.541 E.00479
G1 X96.225 Y121.011 E.07173
G1 X95.555 Y120.526 E.03144
G1 X94.436 Y119.9 E.04873
G1 X94.208 Y119.694 E.01168
G1 X94.098 Y119.433 E.01076
G1 X94.079 Y118.31 E.04269
G1 X94 Y106.277 E.45734
G1 X94.019 Y106.108 E.00646
;WIDTH:0.459995
G1 X94.038 Y105.94 E.00586
;WIDTH:0.419991
G1 X94.057 Y105.772 E.0053
G1 X94.035 Y105.583 E.00597
;WIDTH:0.459995
G1 X94.014 Y105.394 E.00659
;WIDTH:0.499999
G1 X93.993 Y105.205 E.00723
G1 X93.979 Y103.131 E.07883
G1 X93.977 Y99.556 E.13587
;WIDTH:0.458231
G1 X94.065 Y99.243 E.01123
;WIDTH:0.483947
G1 X94.363 Y98.636 E.0248
;WIDTH:0.502948
G1 X94.655 Y98.219 E.01947
G1 X95.083 Y97.867 E.0212
;WIDTH:0.469572
G1 X95.527 Y97.611 E.01818
;WIDTH:0.499999
G1 X96.323 Y97.256 E.03313
G1 X99.152 Y96.222 E.11448
G1 X99.416 Y96.181 E.01015
G1 X99.717 Y96.265 E.01188
G1 X99.945 Y96.467 E.01158
G1 X100.209 Y96.922 E.01999
G1 X100.288 Y97.139 E.00878
G1 X100.277 Y97.437 E.01133
G1 X100.109 Y97.736 E.01303
G1 X99.621 Y98.144 E.02418
G1 X99.25 Y98.508 E.01975
G1 X98.944 Y98.922 E.01957
G1 X98.794 Y99.216 E.01254
G1 X98.818 Y99.776 E.0213
G1 X98.837 Y102.438 E.10118
;WIDTH:0.539168
G1 X98.858 Y102.614 E.00731
;WIDTH:0.578337
G1 X98.879 Y102.791 E.00794
;WIDTH:0.617506
G1 X98.9 Y102.967 E.00847
G1 X98.97 Y102.822 E.00769
;WIDTH:0.578337
G1 X99.04 Y102.678 E.00713
;WIDTH:0.539168
G1 X99.11 Y102.533 E.00664
;WIDTH:0.499999
G1 X99.905 Y101.542 E.04829
G1 X100.316 Y101.087 E.0233
G1 X100.808 Y100.601 E.02628
G1 X101.918 Y99.669 E.05509
G1 X102.706 Y99.089 E.03719
G1 X103.153 Y98.787 E.0205
G1 X103.429 Y98.678 E.01128
G1 X103.944 Y98.638 E.01963
G1 X104.326 Y98.651 E.01453
G1 X104.563 Y98.77 E.01008
G1 X104.668 Y98.988 E.0092
G1 X104.843 Y98.821 E.00919
G1 X105.138 Y98.795 E.01126
G1 X105.727 Y98.933 E.02299
G1 X106.451 Y99.164 E.02888
G1 X108.267 Y100.043 E.07668
G1 X108.784 Y100.392 E.02371
G1 X109.224 Y100.858 E.02436
G1 X109.296 Y100.984 E.00552
G1 X109.371 Y100.885 E.00472
G1 X109.695 Y100.733 E.0136
G1 X110.251 Y100.636 E.02145
G1 X110.805 Y100.583 E.02115
G1 X114.48 Y100.49 E.13972
;WIDTH:0.544237
G1 X114.632 Y100.515 E.00642
;WIDTH:0.588475
G1 X114.784 Y100.539 E.00698
;WIDTH:0.632712
G1 X114.936 Y100.564 E.00755
G1 X115.171 Y100.864 E.01869
;WIDTH:0.628323
G1 X115.357 Y101.305 E.0233
G1 X115.313 Y101.457 E.0077
;WIDTH:0.585549
G1 X115.268 Y101.61 E.0072
;WIDTH:0.542774
G1 X115.224 Y101.762 E.00658
;WIDTH:0.499999
G1 X114.726 Y102.384 E.03028
G1 X114.695 Y102.722 E.0129
G1 X114.704 Y103.413 E.02626
G1 X114.7 Y112.113 E.33065
G1 X115.814 Y113.355 E.06341
G1 X116.238 Y113.736 E.02166
G1 X116.423 Y113.259 E.01944
G1 X116.467 Y111.722 E.05844
G1 X116.495 Y110.128 E.06059
G1 X116.493 Y106.734 E.12899
G1 X116.476 Y104.351 E.09057
G1 X116.416 Y103.346 E.03826
G1 X116.329 Y102.453 E.0341
G1 X116.204 Y101.887 E.02203
;WIDTH:0.530035
G1 X116.119 Y101.628 E.01104
;WIDTH:0.560071
G1 X116.035 Y101.369 E.01171
;WIDTH:0.590571
G1 X115.931 Y101.134 E.0117
;WIDTH:0.62107
G1 X115.828 Y100.899 E.01233
G1 X115.546 Y100.399 E.0276
;WIDTH:0.607611
G1 X115.378 Y100.175 E.01315
;WIDTH:0.571741
G1 X115.209 Y99.95 E.01237
;WIDTH:0.53587
G1 X115.041 Y99.725 E.01151
;WIDTH:0.499999
G1 X114.099 Y98.887 E.04792
G1 X113.912 Y98.616 E.01251
G1 X113.868 Y98.373 E.00939
G1 X113.948 Y98.052 E.01257
G1 X114.187 Y97.612 E.01903
G1 X114.38 Y97.423 E.01027
G1 X114.669 Y97.317 E.0117
G1 X114.923 Y97.334 E.00968
G1 X116.005 Y97.611 E.04245
G1 X116.936 Y97.874 E.03677
G1 X118.15 Y98.476 E.0515
G1 X119.21 Y99.129 E.04732
G1 X120.164 Y99.883 E.04622
G1 X121.092 Y100.731 E.04778
G1 X121.281 Y101.026 E.01332
G1 X121.3 Y101.639 E.02331
G1 X121.746 Y101.122 E.02595
G1 X122.272 Y100.602 E.02811
G1 X123.297 Y99.738 E.05095
G1 X123.992 Y99.237 E.03256
G1 X124.612 Y98.827 E.02825
G1 X124.876 Y98.726 E.01074
G1 X125.165 Y98.742 E.011
G1 X125.548 Y98.934 E.01628
G1 X125.719 Y98.771 E.00898
G1 X126.011 Y98.671 E.01173
G1 X126.224 Y98.683 E.00811
G1 X127.031 Y98.854 E.03135
G1 X127.722 Y99.091 E.02776
G1 X129.719 Y100.05 E.0842
G1 X130.159 Y100.328 E.01978
G1 X130.58 Y100.689 E.02108
G1 X130.925 Y101.141 E.02161
G1 X131.135 Y101.569 E.01812
G1 X131.338 Y102.224 E.02606
G1 X131.365 Y102.459 E.00899
G1 X132.321 Y102.365 E.03651
G1 X133.407 Y102.389 E.04128
G1 X136.263 Y102.322 E.10858
G1 X136.325 Y102.324 E.00236
G1 X136.46 Y102.412 E.00612
;WIDTH:0.454052
G1 X136.596 Y102.501 E.00556
;WIDTH:0.408104
G1 X136.731 Y102.589 E.00489
G1 X136.59 Y102.469 E.00562
;WIDTH:0.454052
G1 X136.449 Y102.349 E.00633
;WIDTH:0.499999
G1 X136.307 Y102.229 E.00707
G1 X136.165 Y101.81 E.01681
G1 X136.165 Y101.201 E.02315
G1 X136.202 Y100.979 E.00855
G1 X136.363 Y100.72 E.01159
G1 X136.628 Y100.553 E.0119
G1 X136.913 Y100.518 E.01091
G1 X137.193 Y100.607 E.01117
G1 X141.071 Y102.838 E.17004
G1 X141.29 Y103.037 E.01125
G1 X141.46 Y103.284 E.0114
G1 X141.601 Y103.755 E.01869
G1 X141.618 Y103.911 E.00596
G1 X141.617 Y107.315 E.12937
;WIDTH:0.544436
G1 X141.639 Y107.395 E.00346
;WIDTH:0.588873
G1 X141.661 Y107.475 E.00377
;WIDTH:0.63331
G1 X141.684 Y107.555 E.00409
;WIDTH:0.677747
G1 X141.706 Y107.635 E.00438
;WIDTH:0.722183
G1 X141.728 Y107.715 E.00469
G1 X141.724 Y108.406 E.03903
;WIDTH:0.714866
G1 X141.704 Y110.416 E.11231
;WIDTH:0.677427
G1 X141.685 Y112.426 E.10605
;WIDTH:0.639988
G1 X141.685 Y112.519 E.00462
G1 X142.137 Y113.18 E.03976
G1 X142.247 Y113.361 E.01052
G1 X142.282 Y112.438 E.04586
;WIDTH:0.677427
G1 X142.339 Y110.426 E.10619
;WIDTH:0.714866
G1 X142.396 Y108.414 E.11246
;WIDTH:0.722183
G1 X142.407 Y107.722 E.03909
G1 X142.431 Y107.643 E.00466
;WIDTH:0.677747
G1 X142.455 Y107.563 E.00441
;WIDTH:0.63331
G1 X142.479 Y107.484 E.00405
;WIDTH:0.588873
G1 X142.503 Y107.404 E.00379
;WIDTH:0.544436
G1 X142.527 Y107.325 E.00344
;WIDTH:0.499999
G1 X142.565 Y105.568 E.06679
G1 X142.602 Y102.852 E.10323
G1 X142.369 Y102.401 E.01929
G1 X141.938 Y101.915 E.02469
G1 X141.765 Y101.46 E.0185
G1 X141.765 Y101.108 E.01338
G1 X141.81 Y100.865 E.00939
G1 X142 Y100.592 E.01264
G1 X142.431 Y100.339 E.01899
G1 X142.723 Y100.297 E.01121
G1 X143.021 Y100.39 E.01186
G1 X145.546 Y101.874 E.11131
G1 X146.001 Y102.153 E.02029
G1 X146.523 Y102.531 E.02449
G1 X146.603 Y102.614 E.00438
G1 X146.806 Y102.24 E.01617
G1 X147.273 Y101.591 E.03039
G1 X147.728 Y101.084 E.02589
G1 X148.237 Y100.585 E.02709
G1 X149.306 Y99.691 E.05296
G1 X150.155 Y99.129 E.0387
G1 X150.719 Y98.869 E.0236
G1 X151.033 Y98.811 E.01214
G1 X151.305 Y98.884 E.0107
G1 X151.488 Y99.002 E.00828
G1 X151.64 Y98.877 E.00748
G1 X151.95 Y98.792 E.01222
G1 X152.477 Y98.786 E.02003
G1 X152.916 Y98.859 E.01691
G1 X153.649 Y99.099 E.02931
G1 X155.652 Y100.06 E.08443
G1 X156.094 Y100.339 E.01987
G1 X156.514 Y100.699 E.02102
G1 X156.859 Y101.15 E.02158
G1 X157.064 Y101.559 E.01739
G1 X157.286 Y102.215 E.02632
G1 X157.316 Y102.533 E.01214
G1 X157.295 Y102.738 E.00783
G1 X157.44 Y102.627 E.00694
G1 X157.975 Y102.572 E.02044
G1 X159.164 Y102.542 E.0452
G1 X162.306 Y102.543 E.11942
G1 X162.605 Y102.615 E.01169
G1 X162.771 Y102.73 E.00768
G1 X162.943 Y102.992 E.01191
G1 X163.062 Y103.509 E.02016
G1 X163.073 Y103.732 E.00849
G1 X163.007 Y103.958 E.00895
G1 X162.838 Y104.174 E.01042
G1 X162.265 Y104.49 E.02487
G1 X162.124 Y104.941 E.01796
G1 X161.924 Y109.941 E.19018
G1 X161.862 Y111.035 E.04165
G1 X162.225 Y111.103 E.01404
G1 X162.739 Y111.36 E.02184
G1 X163.196 Y111.623 E.02004
G1 X163.78 Y111.97 E.02582
G1 X164.79 Y112.608 E.0454
G1 X165.324 Y113.046 E.02625
G1 X165.496 Y112.51 E.02139
G1 X165.757 Y112.048 E.02017
G1 X166.65 Y110.832 E.05734
G1 X167.205 Y110.556 E.02356
G1 X166.531 Y110.202 E.02893
G1 X165.83 Y109.725 E.03223
G1 X165.212 Y109.086 E.03379
G1 X164.662 Y108.311 E.03612
G1 X164.545 Y108.01 E.01227
G1 X164.544 Y107.835 E.00665
G1 X164.703 Y106.536 E.04974
G1 X164.857 Y105.649 E.03422
G1 X165.077 Y104.764 E.03466
G1 X165.251 Y104.171 E.02349
G1 X165.614 Y103.397 E.03249
G1 X165.808 Y103.022 E.01605
G1 X166.252 Y102.419 E.02846
G1 X166.738 Y101.908 E.0268
G1 X167.823 Y100.976 E.05436
G1 X168.091 Y100.835 E.01151
G1 X168.404 Y100.826 E.0119
G1 X168.647 Y100.926 E.00999
G1 X169.576 Y101.542 E.04236
G1 X169.655 Y101.287 E.01015
G1 X169.861 Y100.974 E.01424
G1 X170.212 Y100.714 E.0166
G1 X170.715 Y100.577 E.01981
G1 X170.974 Y100.612 E.00993
G1 X171.691 Y100.854 E.02876
G1 X172.547 Y101.381 E.0382
G1 X172.685 Y101.497 E.00685
G1 X175.358 Y104.455 E.15152
G1 X175.501 Y104.704 E.01091
G1 X175.528 Y105.009 E.01164
G1 X175.346 Y105.499 E.01987
G1 X175.237 Y105.648 E.00702
G1 X175.096 Y105.761 E.00687
G1 X174.779 Y105.858 E.0126
G1 X174.218 Y105.888 E.02135
G1 X174.34 Y113.025 E.27129
G1 X174.191 Y113.688 E.02583
G1 X174.079 Y114.081 E.01553
G1 X173.878 Y114.524 E.01849
G1 X173.576 Y114.973 E.02057
G1 X172.941 Y115.614 E.03429
G1 X169.73 Y118.056 E.15332
G1 X169.434 Y118.185 E.01227
G1 X169.145 Y118.174 E.01099
G1 X168.339 Y117.724 E.03508
G1 X166.926 Y116.878 E.06259
G1 X166.273 Y116.371 E.03142
G1 X165.863 Y115.996 E.02112
G1 X165.599 Y115.712 E.01474
G1 X165.419 Y116.255 E.02174
G1 X164.916 Y117.211 E.04106
G1 X164.333 Y118.241 E.04498
G1 X164.146 Y118.453 E.01074
G1 X163.753 Y118.707 E.01778
G1 X163.254 Y118.78 E.01917
G1 X163 Y118.721 E.00991
G1 X162.322 Y118.421 E.02818
G1 X161.783 Y118.035 E.0252
G1 X161.833 Y118.537 E.01917
G1 X161.842 Y119.576 E.03949
G1 X161.762 Y119.903 E.01279
G1 X161.563 Y120.134 E.01159
G1 X161.108 Y120.359 E.01929
G1 X160.789 Y120.379 E.01215
G1 X160.487 Y120.245 E.01256
G1 X158.377 Y118.601 E.10166
G1 X157.397 Y117.882 E.0462
G1 X156.32 Y117.115 E.05025
G1 X156.121 Y116.894 E.0113
G1 X156.039 Y116.651 E.00975
G1 X156.069 Y116.335 E.01206
G1 X156.299 Y115.764 E.0234
G1 X156.462 Y115.608 E.00858
G1 X156.666 Y115.514 E.00854
G1 X156.876 Y115.49 E.00803
G1 X157.719 Y115.524 E.03207
G1 X157.722 Y110.482 E.19163
;WIDTH:0.545673
G1 X157.699 Y110.038 E.01859
;WIDTH:0.591347
G1 X157.676 Y109.594 E.02027
G1 X157.695 Y108.599 E.04538
;WIDTH:0.555615
G1 X157.695 Y108.569 E.00128
;WIDTH:0.554844
G1 X157.708 Y107.125 E.06147
;WIDTH:0.529371
G1 X157.722 Y105.682 E.05837
;WIDTH:0.503898
G1 X157.726 Y104.794 E.03404
;WIDTH:0.495467
G1 X157.719 Y104.612 E.00685
;WIDTH:0.49363
G1 X157.253 Y104.288 E.02127
;WIDTH:0.495467
G1 X157.274 Y104.795 E.01909
;WIDTH:0.503898
G1 X157.261 Y105.677 E.03381
;WIDTH:0.504101
G1 X157.26 Y105.688 E.00042
;WIDTH:0.529473
G1 X157.222 Y107.124 E.05812
;WIDTH:0.554844
G1 X157.183 Y108.559 E.06111
;WIDTH:0.585133
G1 X157.138 Y109.467 E.04099
G1 X157.035 Y109.94 E.02183
;WIDTH:0.542566
G1 X156.932 Y110.413 E.02011
;WIDTH:0.499999
G1 X156.595 Y111.304 E.0362
G1 X156.546 Y111.404 E.00423
G1 X155.811 Y112.634 E.05446
G1 X155.469 Y112.945 E.01757
G1 X153.44 Y114.341 E.0936
G1 X152.968 Y114.646 E.02136
G1 X152.719 Y114.744 E.01017
G1 X152.442 Y114.737 E.01053
G1 X151.936 Y114.513 E.02103
G1 X151.489 Y114.216 E.0204
G1 X151.345 Y114.05 E.00835
G1 X151.304 Y113.879 E.00668
G1 X151.144 Y113.955 E.00673
G1 X150.772 Y113.909 E.01425
G1 X150.247 Y113.771 E.02063
G1 X149.774 Y113.595 E.01918
G1 X148.75 Y113.036 E.04434
G1 X147.132 Y111.964 E.07377
G1 X147.108 Y114.406 E.09282
G1 X147.04 Y114.696 E.01132
G1 X144.937 Y117.735 E.14046
G1 X144.58 Y118.043 E.01792
G1 X144.291 Y118.167 E.01195
G1 X143.795 Y118.203 E.0189
G1 X143.43 Y118.049 E.01506
G1 X142.673 Y117.652 E.03249
G1 X142.541 Y117.564 E.00603
G1 X141.648 Y116.891 E.0425
G1 X141.223 Y116.393 E.02488
G1 X141.03 Y116.119 E.01274
G1 X140.876 Y115.763 E.01474
G1 X140.565 Y116.297 E.02349
G1 X139.338 Y118.08 E.08226
G1 X138.979 Y118.391 E.01805
G1 X138.691 Y118.514 E.0119
G1 X138.194 Y118.55 E.01894
G1 X137.995 Y118.483 E.00798
G1 X137.073 Y118 E.03956
G1 X136.976 Y117.939 E.00435
G1 X136.037 Y117.226 E.04481
G1 X135.822 Y116.968 E.01276
G1 X135.833 Y117.319 E.01335
G1 X135.504 Y117.862 E.02413
G1 X134.994 Y118.052 E.02068
G1 X134.682 Y118.042 E.01186
G1 X134.448 Y117.927 E.00991
G1 X133.721 Y117.098 E.04191
G1 X133.472 Y116.837 E.01371
G1 X132.559 Y116.119 E.04414
G1 X131.566 Y115.501 E.04445
G1 X130.418 Y114.862 E.04993
G1 X130.188 Y114.653 E.01181
G1 X130.084 Y114.421 E.00966
G1 X130.089 Y114.085 E.01277
;WIDTH:0.538008
